.svelte-kit/output/client/library/social-钉钉.svg

<svg width="48" height="48" viewBox="0 0 48 48" fill="none" xmlns="http://www.w3.org/2000/svg">
<rect x="6" y="6" width="36" height="36" rx="8" fill="#0285FC"/>
<path d="M20.1778 37.577L23.6778 31.577H20.6778L22.6778 28.577C17.1778 27.577 16.3966 24.6395 16.6778 24.077C16.8403 23.752 19.1778 25.077 22.9591 25.077C14.6778 24.577 14.6778 18.077 15.1778 17.577C15.6015 17.1533 17.6184 19.2428 21.7418 21.1074C12.6159 16.7932 15.2894 9.15139 16.6778 10.077C20.0216 13.077 26.1778 18.577 31.6778 23.077C32.3357 23.6153 32.6778 25.077 31.6778 26.327C30.6779 27.5769 29.178 29.0768 28.6779 29.5769L28.6778 29.577H31.1778L20.1778 37.577Z" fill="white"/>
</svg>

<svg width="48" height="48" fill="none" xmlns="http://www.w3.org/2000/svg"><rect x="6" y="6" width="36" height="36" rx="8" fill="#0285FC"/><path d="m20.178 37.577 3.5-6h-3l2-3c-5.5-1-6.281-3.938-6-4.5.162-.325 2.5 1 6.281 1-8.281-.5-8.281-7-7.781-7.5.423-.424 2.44 1.666 6.564 3.53-9.126-4.314-6.453-11.956-5.064-11.03 3.344 3 9.5 8.5 15 13 .658.538 1 2 0 3.25s-2.5 2.75-3 3.25h2.5l-11 8Z" fill="#fff"/></svg>
